X:419
T:Pipe Major Robert Rennie 
C:Joe Buchanan's Scottish Tome - Page 382.0
I:382 0
Z:Carl Allison
C:P.M. M. MacDonald
R:March
L:1/8
M:2/4
K:D
a/>f/ | e/>c/B/<A/ c/>B/c/<e/ | A/>c/a/>e/ fe/>c/ | e/>f/a/>e/ c/<e/A/>c/ | B/>c/B/<A/ Ba/>f/ |
e/>c/B/<A/ c/>B/c/<e/ | ((3f/e/c/)a/f/ eA/>f/ | ((3e/c/B/)c/A/ ((3c/B/c/)((3f/c/B/) | cA A :|
f/>g/ | ae f/<a/a/>e/ | f/>e/a/>f/ ec/>B/ | AA/>c/ f/>A/e/>c/ | B/<c/B/<A/ Ba/>f/ |
ae f/<a/a/>e/ | f/>e/a/>f/ eA/>f/ | ((3e/c/B/)c/A/ ((3c/B/c/)((3f/c/B/) | cA A :|
a | Ac/>e/ AA/>c/ | B/<c/B/<A/ Ac/>e/ | f/>e/c/<e/ AA/>c/ | B/>c/B/<A/ Ba |
Ac/>e/ AA/>c/ | B/>c/B/<A/ f/>e/c/<f/ | ((3e/c/B/)c/A/ ((3c/B/c/)((3f/c/B/) | cA A :|
f/>g/ | aa/>e/ f/>e/e/>f/ | ea/>e/ f/>e/e/>f/ | cf/>c/ e/>A/A/>c/ | B/<c/B/<A/ Bf/>g/ |
aa/>e/ f/>e/e/>f/ | ea/>e/ f/>e/e/>f/ | ((3e/c/B/)c/A/ ((3c/B/c/)((3f/c/B/) | cA Bf/>g/ |
aa/>e/ f/>e/e/>f/ | ea/>e/ f/>e/e/>f/ | cf/>c/ e/>A/A/>c/ | B/<c/B/<A/ Ba |
Ac/>e/ AA/>c/ | B/<c/B/<A/ f/>e/c/<f/ | ((3e/c/B/)c/A/ ((3c/B/c/)((3f/c/B/) | cA A |]
W:Errata: Changed to key of D after listening to the tune.

